icons/svg/comment-multiple--var.svg

<svg width="24" height="24" viewBox="0 0 24 24" fill="none" xmlns="http://www.w3.org/2000/svg">
<path d="M6.43065 17.7415H7.18065C7.18065 17.3272 6.84486 16.9915 6.43065 16.9915V17.7415ZM7.26959 21.1265L6.76118 20.5751L6.76118 20.5751L7.26959 21.1265ZM10.9407 17.7415V16.9915C10.7523 16.9915 10.5708 17.0624 10.4323 17.1901L10.9407 17.7415ZM3.73474 8.75998C3.73474 7.51734 4.7421 6.50998 5.98474 6.50998V5.00998C3.91367 5.00998 2.23474 6.68891 2.23474 8.75998H3.73474ZM3.73474 14.7415V8.75998H2.23474V14.7415H3.73474ZM5.98474 16.9915C4.7421 16.9915 3.73474 15.9841 3.73474 14.7415H2.23474C2.23474 16.8125 3.91367 18.4915 5.98474 18.4915V16.9915ZM6.41189 16.9915H5.98474V18.4915H6.41189V16.9915ZM6.43065 16.9915H6.41189V18.4915H6.43065V16.9915ZM7.18065 20.7589V17.7415H5.68065V20.7589H7.18065ZM6.76118 20.5751C6.92135 20.4274 7.18065 20.541 7.18065 20.7589H5.68065C5.68065 21.8483 6.97713 22.4163 7.778 21.6779L6.76118 20.5751ZM10.4323 17.1901L6.76118 20.5751L7.778 21.6779L11.4491 18.2928L10.4323 17.1901ZM14.9847 16.9915H10.9407V18.4915H14.9847V16.9915ZM17.2347 14.7415C17.2347 15.9841 16.2274 16.9915 14.9847 16.9915V18.4915C17.0558 18.4915 18.7347 16.8125 18.7347 14.7415H17.2347ZM17.2347 8.75998V14.7415H18.7347V8.75998H17.2347ZM14.9847 6.50998C16.2274 6.50998 17.2347 7.51734 17.2347 8.75998H18.7347C18.7347 6.68891 17.0558 5.00998 14.9847 5.00998V6.50998ZM5.98474 6.50998H14.9847V5.00998H5.98474V6.50998Z" fill="currentColor"/>
<path d="M6.98474 2.75998H14.9847C18.2984 2.75998 20.9847 5.44627 20.9847 8.75998V13.7415" stroke="currentColor" stroke-width="1.5" stroke-linecap="round" stroke-linejoin="round"/>
</svg>

<svg xmlns="http://www.w3.org/2000/svg" width="24" height="24" fill="none" viewBox="0 0 24 24"><path fill="currentColor" d="M6.43 17.742h.75a.75.75 0 0 0-.75-.75zm.84 3.384-.509-.55zm3.67-3.385v-.75a.75.75 0 0 0-.508.2zM3.736 8.76a2.25 2.25 0 0 1 2.25-2.25v-1.5a3.75 3.75 0 0 0-3.75 3.75zm0 5.982V8.76h-1.5v5.982zm2.25 2.25a2.25 2.25 0 0 1-2.25-2.25h-1.5a3.75 3.75 0 0 0 3.75 3.75zm.427 0h-.427v1.5h.427zm.019 0h-.02v1.5h.02zm.75 3.767V17.74h-1.5v3.018zm-.42-.184a.25.25 0 0 1 .42.184h-1.5c0 1.09 1.296 1.657 2.097.919zm3.671-3.385-3.67 3.385 1.016 1.103 3.671-3.385zm4.553-.199H10.94v1.5h4.044zm2.25-2.25a2.25 2.25 0 0 1-2.25 2.25v1.5a3.75 3.75 0 0 0 3.75-3.75zm0-5.981v5.982h1.5V8.76zm-2.25-2.25a2.25 2.25 0 0 1 2.25 2.25h1.5a3.75 3.75 0 0 0-3.75-3.75zm-9 0h9v-1.5h-9z"/><path stroke="currentColor" stroke-linecap="round" stroke-linejoin="round" stroke-width="1.5" d="M6.985 2.76h8a6 6 0 0 1 6 6v4.982"/></svg>
